X: 30776
T: Orreaga
R: slide
M: 12/8
K: Eminor
|:BAG FGA B2G E3|BAG AGF E2B E3|
BAG FGA B2G E3|1 BAG AGF E2B E3:|2 BAG AGF E6||
|:B2B B2c B3 BAG|F2F G2F E3E3|
B2B B2c B3 BAG|F2F G2F E6:|

